X:4080
L:1/16
Q:1/4=104
M:8/8
K:Bmin
"^Moderato" A2 F4 AF A2 F4 AF | A2 F4 AF F2 E3 (D E)F | F2 E4 ED D2 C4 DE | 
 F D3 D C3 C B,3- B,2 (3C(DC) | ED DC C B,3- B,2 B,2 B,4 | (3B,FE- E2 E D3 D C3- C2 (3D(DC) | 
 F D3 D C3 C B,3- B,2 (3C(DC) | E D3 D C3 C B,3- B,2- (3B,B,B, |]

